X: 2022
T: All the Town Was There
R: reel
C: Rick Gagne
N: 1988 on whistle
Q: 1/4=175
M: 4/4
K: D
ef | "G"gB~B2 "D"fA~A2 | "A"eABc "D"def/e/d | "G"gB~B2 "D"fA~A2 | "A"eaab a2fa |
"Em"gB~B2 "D"fA~A2 | "A"eABc "D"def/e/d | "Em"Bg~g2 "D"Af~f2 | "A"eABc "D"d2 :| 
cB | "A"AE~E2 Agfe | "D"dF~F2 "Bm"defd | "Em"eB~B2 efge | "A"aAAa A2af | 
"G"gB~B2 "Em"gfeg | "D"fA~A2 "Em"B2Bc | "G"dBAG "D"FADf | "A"eABc "D"d2 :|
